X:1
T:McDermot Roe (air)
T:McDermot Roe (air)
T:Carolan
C:Carolan
L:1/8
M:4/4
K:C
V:1 treble 
V:1
 eae eecf Caaa"^the 1850" .eegea!p! egfe fa ae ee aa"^McDermott"[Q:1/8=80].c | AFF Acc z2 | %2
 f2 F fed z2 | e/f/g c dc_B z2 | Acc f2 g z2 | a_b/a/ g ab/a/g z2 | fdd d2 e/f/ z2 | %7
 gcg ga/g/f z2 | ec/d/ e f2 c z2 | AFF cA/_B/c/A/ z2 | FA/_B/c/A/ F2 f z2 | ecc d_B/c/d/B/ z2 | %12
 c/_B/A/B/c/A/ G>AG z2 | FAf fFf z2 | gcg afa z2 | agf ece z2 | fFF F3 z2 | GCC GCC z2 | %18
 AF/G/A/F/ _BGG z2 | A/_B/c c d/e/ff z2 | e/f/g g ece z2 | fc' _b a/b/c'/b/a/g/ z2 | fcf fcf z2 | %23
 _bg/a/b/g/ fd/e/f/d/ z2 | _Bc/d/ g ece z2 | f2 F fed z2 | c2 A _BAG z2 | A/_B/c c fg/f/e z2 | %28
 f3- f3 z2 |] %29

